!!!COM: Josquin des Prez
!!!CDT: ~1450-1521/08/27
!!!OTL@@FRA: Cela sans plus
!!!AGN: Chanson
!!!SCT: NJE 27.3
!!!SCA: New Josquin Edition 27.3
!!!voices: 3
**kern	**kern	**kern
*staff3	*staff2	*staff1
*Ivox	*Ivox	*Ivox
*I"Contra	*I"Tenor	*I"Superius
*I'C	*I'T	*I'S
*>[A,B]	*>[A,B]	*>[A,B]
*>Part1[A]	*>Part1[A]	*>Part1[A]
*>Part2[B]	*>Part2[B]	*>Part2[B]
*clefF4	*clefGv2	*clefG2
*>A	*>A	*>A
*k[b-e-]	*k[b-]	*k[b-]
*M2/1	*M2/1	*M2/1
*met(C|)	*met(C|)	*met(C|)
=1-	=1-	=1-
0r	0r	1d
.	.	1e
=2	=2	=2
0r	0r	1f
.	.	[1g
=3	=3	=3
0r	1G	1g]
.	1A	2e/
.	.	2f/
=4	=4	=4
0r	1B-	1d
.	[1c	1c
=5	=5	=5
1C	1c]	1e
1D	2A/	1f
.	2B-\	.
=6	=6	=6
1E-	1G	1g
[1F	1F	[1a
=7	=7	=7
1F]	1A	1a]
2D\	1B-	2f/
2E-\	.	2g/
=8	=8	=8
1C	1c	1e
1BB-	[1d	1d
=9	=9	=9
1D	1d]	1f
1E-	2B-\	1g
.	2c\	.
=10	=10	=10
1F	1A	1a
[1G	1G	2.b-\
.	.	4a/
=11	=11	=11
1G]	1B-	2g/
.	.	2f/
1A	1c	1e
=12	=12	=12
1B-	1d	1d
[1E-	2.e-\	[1g
.	4d\	.
=13	=13	=13
2E-\]	2c\	1g]
4F\	2B-\	.
4G\	.	.
1D	1A	1f#i
=14	=14	=14
1E-	1G	0g
1C	[1c	.
=15	=15	=15
0G	1c]	0r
.	1Bni	.
=16	=16	=16
[0F	0c	0a
=17	=17	=17
0F]	0r	1a
.	.	1a
=18	=18	=18
1BB-	0d	1b-
2F\	.	2a/
[2G\	.	[2b-\
=19	=19	=19
2G\]	1d	2b-\]
4F\	.	4a/
4E-\	.	4g/
1D	1d	1f
=20	=20	=20
1C	1e-i	1g
2r	2d\	2f/
[2C/	[2e-i\	[2g/
=21	=21	=21
4C/]	2e-\]	2g/]
4D\	.	.
4E-\	4d\	4f/
4F\	4c\	4e/
1G	1B-	1d
=22	=22	=22
1C	1c	1r
[1E-	2B-\	1g
.	[2c\	.
=23	=23	=23
2E-\]	2c\]	1g
4D\	4B-\	.
4C/	4A/	.
2E-\	1G	1g
4F\	.	.
4G\	.	.
=24	=24	=24
[0C	1r	2.e/
.	.	4f/
.	1c	2g/
.	.	2a/
=25	=25	=25
0C]	1c	2g/
.	.	1a
.	1c	.
.	.	2g/
=26	=26	=26
1.F	2.A/	2a/
.	.	1cc
.	4B-\	.
.	2c\	.
2F\	2d\	2b-\
=27	=27	=27
1F	2c\	1a
.	1f	.
1C	.	1g
.	2e\	.
=28	=28	=28
1D	1.f	1.f
1BB-	.	.
.	2e\	4g/
.	.	4a/
=29	=29	=29
1r	1d	2b-\
.	.	2.a/
1F	1c	.
.	.	4g/
.	.	4f/
.	.	4e/
=30	=30	=30
0G	1.B-	1d
.	.	[1g
.	4c\	.
.	4d\	.
=31	=31	=31
0C	1.e-i	2g/]
.	.	4a/
.	.	4b-\
.	.	1cc
.	4d\	.
.	4c\	.
=32	=32	=32
1r	2d\	2b-\
.	1c	1a
1D	.	.
.	2B-\	4g/
.	.	4f/
=33	=33	=33
0A;l	0c;l	0e;l
!!LO:LB:g=z
=34||	=34||	=34||
*>B	*>B	*>B
1.B-	[0G	1r
.	.	[1d
4A\	.	.
4G\	.	.
=35	=35	=35
4B-\	0G]	2d/]
4A\	.	.
4G\	.	4e/
4F\	.	4f/
1E-	.	1g
=36	=36	=36
1D	[0A	1f
2C/	.	[1e
[2c\	.	.
=37	=37	=37
4c\]	0A]	2e/]
4B-\	.	.
4A\	.	4f/
4G\	.	4g/
1F	.	1a
=38	=38	=38
1E-	[0B-	1g
2D\	.	[1f
[2d\	.	.
=39	=39	=39
4d\]	0B-]	2f/]
4c\	.	.
4B-\	.	4g/
4A\	.	4a/
1G	.	1b-
=40	=40	=40
1F	[0c	1a
2E-\	.	[1g
[2e-\	.	.
=41	=41	=41
4e-\]	0c]	2g/]
4d\	.	.
4c\	.	4a/
4B-\	.	4b-\
1A	.	1cc
=42	=42	=42
1G	[0d	1b-
2F\	.	1a
[2f\	.	.
=43	=43	=43
4f\]	0d]	1r
4e-\	.	.
4d\	.	.
4c\	.	.
2B-\	.	[1dd
4A\	.	.
4G\	.	.
=44	=44	=44
1B-	0r	1dd]
1A	.	1cc
=45	=45	=45
1G	0d	1b-
1D	.	[1a
=46	=46	=46
1F	1c	1a]
1G	1B-	1g
=47	=47	=47
1A	0A	0cc
1F	.	.
=48	=48	=48
2G\	1G	1b-
2E-\	.	.
2.F\	[1c	1a
4E-\	.	.
=49	=49	=49
4C/	1c]	1.g
4D\	.	.
4E-\	.	.
4F\	.	.
2G\	1B-	.
4A\	.	4f/
4B-\	.	4e/
=50	=50	=50
1c	1A	2f/
.	.	4g/
.	.	4a/
1d	[1G	[1b-
=51	=51	=51
1r	2G/]	2b-\]
.	4F/	4a/
.	4E/	4g/
1D	2F/	4a/
.	.	4g/
.	4G/	4f/
.	4A/	4e/
=52	=52	=52
4d\	2B-\	2d/
4c\	.	.
4B-\	4G/	4e/
4A\	4A/	4f/
2G\	2B-\	2g/
2F\	[2c\	[2a/
=53	=53	=53
1E-	4c\]	4a/]
.	4B-\	4g/
.	4A/	4f#i/
.	4G/	4e/
1D	1A	1f#i
=54	=54	=54
1.E-	[0Gl	[0gl
4D\	.	.
4C/	.	.
=55	=55	=55
0Gl	0G]	0g]
==	==	==
*-	*-	*-
!!!RDF**kern: l=long note in original notation
!!!RDF**kern: i=editorial accidental
!!!ENC: Jesse Rodin; Victoria Chang 2011/05/30/
!!!END: 2011/05/30/
!!!EED: Jesse Rodin
!!!EEV: 2011/08/09/
!!attribution-level@Jos: 1 (secure)
!!!ONB: Translated from MusicXML and edited on 2011/08/09/ by Craig Sapp
!!muse2ps:  C^@{COM}\n@{SCT}^v100,100,150I150Q16
